X: 1
T: Black Aspen
C: \251 2016 Rodney Miller
R: reel
S: Fiddle Hell Online 2021-4-15 Rodney Miller workshop handout
Z: 2021 John Chambers <jc:trillian.mit.edu>
M: C|
L: 1/8
K: Dm
|:\
"Am"A,CE2 "Dm"D2DE | FEDF ED3 | "Bb"B,CD2 "C"C2CD | EDCE DCA,G, |
"Am"A,CE2 "Dm"D2DE | FEDF ED2A | "Bb"BAF2 "C"G3F | "Am"EDC2 "Dm"D4 :|
|:\
"Dm"d2AG FD2d- | ddAF "Bb"B3A | "C"G2GF E2ED | CDED "Am"EGAc |
"Dm"d2AG FD2d- | "Gm7"ddAF B3A | "C"G2GF E2EF | "Am"EDC2 "Dm"D4 :|
